X: 31131
T: Paddy Fahey's
R: jig
M: 6/8
K: Adorian
cBA EAB|cBc aed|c2A Gge|dBG A/B/cd|
cBA EAB|cBc abg|~f3 gfe|dBG A/B/cd:|
|:cBA ~a3|Ace aed|c2A Gge|dBG A/B/cd|
cBA ~a3|Ace abg|~f3 gfe|dBG A/B/cd:|

